X: 132170
T: Mark's Mittens
C: BB 5/06
L: 1/8
M: 4/4
R: hornpipe
Q: 1/4=160
K: D
D2 | "D"FAdA FAdc | "G"BGBd g4 | "D"fedf "A"eAce | "Bm"dcdB "A"AGFE |
"D"FAdA FAdc | "G"BGBd gbag | "D"fdAF "G"GBdg | "A"(3efe ce "D"d2 :|
z2 | "G"GFGA BGBc | "D"dcde fg a2 | "A7"g2 e2 c2 A2 | "D"d2 A2 F2 D2 |
"G"GFGA BGBc | "D"dcde "Bm"fbag | "D"fgaf "G"gdBd | "A"(3efe ce "D"d2 :|
